svg/企业版.svg

<svg width="48" height="48" viewBox="0 0 48 48" fill="none" xmlns="http://www.w3.org/2000/svg">
<path d="M0 10C0 4.47715 4.47715 0 10 0H38C43.5229 0 48 4.47715 48 10V38C48 43.5229 43.5228 48 38 48H10C4.47715 48 0 43.5228 0 38V10Z" fill="url(#paint0_linear_1_440)"/>
<path d="M24.6412 11.8002C27.8109 11.8002 30.385 13.6773 30.8043 16.0424L30.8336 16.2074H36.5484L36.7584 16.2181C37.7929 16.3234 38.6002 17.1983 38.6002 18.2631V31.7445C38.6 32.8801 37.6814 33.8002 36.5484 33.8002H12.651C11.5182 33.8 10.6004 32.88 10.6002 31.7445V18.2631C10.6002 17.1274 11.5181 16.2076 12.651 16.2074H18.4488L18.4781 16.0424C18.8974 13.6799 21.4716 11.8002 24.6412 11.8002ZM13.898 17.9369C13.0592 17.9369 12.3766 18.6187 12.3766 19.4603V31.0931C12.3766 31.9345 13.0562 32.6166 13.898 32.6166H35.3102C36.1491 32.6166 36.8307 31.9348 36.8307 31.0931V19.4603C36.8306 18.619 36.1519 17.9369 35.3102 17.9369H13.898ZM16.3219 20.6361H32.8199C33.3043 20.6361 33.6988 21.0305 33.6988 21.5179V28.8187C33.6987 29.3062 33.3042 29.7006 32.8199 29.7006H16.3219C15.8347 29.7004 15.4401 29.3058 15.44 28.8187V21.5179C15.4401 21.0312 15.837 20.6362 16.3219 20.6361ZM28.8805 21.6908C27.0528 21.691 25.5709 23.1763 25.5709 25.0062L25.5758 25.1771C25.6669 26.9274 27.1097 28.3215 28.8805 28.3217C30.7058 28.3217 32.1881 26.8362 32.1881 25.0062C32.1881 23.1764 30.7085 21.6908 28.8805 21.6908ZM24.6412 13.5433C22.6212 13.5433 20.813 14.5469 20.2945 15.9369L20.1939 16.2074H29.0885L28.9879 15.9369C28.4694 14.5469 26.6612 13.5433 24.6412 13.5433Z" fill="url(#paint1_linear_1_440)" stroke="url(#paint2_linear_1_440)" stroke-width="0.4"/>
<defs>
<linearGradient id="paint0_linear_1_440" x1="24" y1="-0.0519792" x2="24" y2="47.948" gradientUnits="userSpaceOnUse">
<stop stop-color="#C873F5"/>
<stop offset="1" stop-color="#7B33BB"/>
</linearGradient>
<linearGradient id="paint1_linear_1_440" x1="24.6" y1="11.6" x2="24.6" y2="34" gradientUnits="userSpaceOnUse">
<stop stop-color="#F0D8FF"/>
<stop offset="1" stop-color="#CD8FFF"/>
</linearGradient>
<linearGradient id="paint2_linear_1_440" x1="24.6" y1="11.6" x2="24.6" y2="34" gradientUnits="userSpaceOnUse">
<stop stop-color="#F9F2FF"/>
<stop offset="1" stop-color="#C275FF"/>
</linearGradient>
</defs>
</svg>

<svg viewBox="0 0 48 48" fill="currentColor"><path fill="currentColor" d="M0 10C0 4.477 4.477 0 10 0h28c5.523 0 10 4.477 10 10v28c0 5.523-4.477 10-10 10H10C4.477 48 0 43.523 0 38z"/><path fill="currentColor" stroke="currentColor" strokeWidth=".4" d="M24.641 11.8c3.17 0 5.744 1.877 6.163 4.242l.03.165h5.714l.21.011a2.054 2.054 0 0 1 1.842 2.045v13.481a2.054 2.054 0 0 1-2.052 2.056H12.651c-1.133 0-2.05-.92-2.05-2.055V18.263c0-1.136.917-2.055 2.05-2.056h5.798l.03-.165c.418-2.362 2.993-4.242 6.162-4.242Zm-10.743 6.137c-.839 0-1.521.682-1.521 1.523v11.633c0 .841.68 1.524 1.521 1.524H35.31c.84 0 1.52-.682 1.52-1.524V19.46a1.52 1.52 0 0 0-1.52-1.523zm2.424 2.7H32.82a.88.88 0 0 1 .879.88v7.302a.88.88 0 0 1-.88.882H16.323a.88.88 0 0 1-.882-.882v-7.301c0-.487.397-.882.882-.882ZM28.88 21.69a3.313 3.313 0 0 0-3.31 3.315l.005.171a3.314 3.314 0 0 0 3.305 3.145 3.313 3.313 0 0 0 3.307-3.316c0-1.83-1.48-3.315-3.308-3.315Zm-4.24-8.148c-2.02 0-3.828 1.004-4.346 2.394l-.101.27h8.895l-.101-.27c-.519-1.39-2.327-2.394-4.347-2.394Z"/><defs><linearGradient id="a" x1="24" x2="24" y1="-.052" y2="47.948" gradientUnits="userSpaceOnUse"><stop stopColor="currentColor"/><stop offset="1" stopColor="currentColor"/></linearGradient><linearGradient id="b" x1="24.6" x2="24.6" y1="11.6" y2="34" gradientUnits="userSpaceOnUse"><stop stopColor="currentColor"/><stop offset="1" stopColor="currentColor"/></linearGradient><linearGradient id="c" x1="24.6" x2="24.6" y1="11.6" y2="34" gradientUnits="userSpaceOnUse"><stop stopColor="currentColor"/><stop offset="1" stopColor="currentColor"/></linearGradient></defs></svg>
